build/images/rivals/Modal/modal_1/orders_result.svg

<svg width="67" height="67" viewBox="0 0 67 67" fill="none" xmlns="http://www.w3.org/2000/svg">
<g clip-path="url(#clip0)">
<path d="M10.9111 54.2267C11.6338 54.2267 12.2197 53.6409 12.2197 52.9182C12.2197 52.1954 11.6338 51.6096 10.9111 51.6096C10.1884 51.6096 9.60254 52.1954 9.60254 52.9182C9.60254 53.6409 10.1884 54.2267 10.9111 54.2267Z" fill="#141414"/>
<path d="M66.1589 43.8607C65.0275 41.2986 62.0224 40.1344 59.4603 41.2655C59.4538 41.2684 59.4472 41.2714 59.4408 41.2743L50.9993 45.1672C50.3431 45.4699 50.0564 46.2473 50.359 46.9036C50.6617 47.56 51.4389 47.8463 52.0954 47.544L60.5256 43.6562C61.7659 43.1139 63.2175 43.6785 63.7648 44.918C64.0304 45.5199 64.0459 46.189 63.8084 46.8022C63.5709 47.4154 63.1085 47.8995 62.5067 48.1652L45.232 55.7925C42.4991 56.9993 39.3973 56.9291 36.7218 55.5997L30.3983 52.458C27.0246 50.7819 23.1128 50.6934 19.6666 52.2149L19.5575 52.2632L14.845 41.5899L21.3908 38.6997C24.5125 37.3211 27.9961 37.2099 31.1991 38.3863L43.9153 43.0562C45.067 43.4791 45.6808 44.7677 45.2837 45.9285C44.8789 47.1114 43.586 47.7478 42.402 47.3473L32.5685 44.0211C31.8838 43.7894 31.1412 44.1568 30.9095 44.8415C30.6779 45.5262 31.0452 46.2688 31.7299 46.5004L41.5633 49.8265C42.0802 50.0013 42.6061 50.0842 43.1242 50.0842C45.1591 50.0842 47.0664 48.8031 47.7599 46.7757C48.6138 44.2797 47.2938 41.509 44.8175 40.5996L32.1014 35.9297C28.2582 34.5183 24.0792 34.6517 20.3338 36.3054L13.7434 39.2152C13.3703 38.6471 12.8341 38.2078 12.1878 37.9575C11.3682 37.6398 10.4743 37.6605 9.67042 38.0155L1.25236 41.7321C0.779439 41.941 0.473752 42.4087 0.472312 42.9256L0.408453 65.6878C0.407144 66.143 0.64256 66.5661 1.0299 66.8051C1.2398 66.9346 1.47823 67 1.71718 67C1.91896 67 2.12114 66.9535 2.30722 66.8595L18.7747 58.5406C19.5616 58.1826 20.1657 57.5427 20.4786 56.7352C20.7376 56.0671 20.7716 55.3494 20.5829 54.6714L20.7237 54.6092C23.4567 53.4024 26.5583 53.4727 29.2339 54.8021L35.5574 57.9438C38.9314 59.62 42.8429 59.7082 46.2891 58.1868L63.5638 50.5595C66.126 49.4281 67.2903 46.4231 66.1589 43.8607ZM18.0381 55.7897C17.9732 55.9572 17.8469 56.0894 17.6825 56.162C17.6617 56.1712 3.03166 63.5613 3.03166 63.5613L3.04749 57.9353L6.83797 56.0739C7.48677 55.7553 7.75437 54.9712 7.43573 54.3225C7.11722 53.6736 6.33298 53.4061 5.68431 53.7246L3.05561 55.0154L3.08714 43.7831L10.7275 40.4097C10.8919 40.3373 11.0747 40.3329 11.2422 40.3978C11.4098 40.4627 11.5421 40.5891 11.6146 40.7534L18.0263 55.275C18.0988 55.4393 18.103 55.6222 18.0381 55.7897Z" fill="#141414"/>
<path d="M49.1646 16.4257H48.2585H47.6707H46.7646C45.8658 16.4257 45.1344 15.6944 45.1344 14.7955V13.3996C45.1344 12.5008 45.8656 11.7694 46.7646 11.7694H49.4237C50.1798 11.7694 50.7948 12.3844 50.7948 13.1405C50.7948 13.8631 51.3807 14.4491 52.1034 14.4491C52.8262 14.4491 53.412 13.8631 53.412 13.1405C53.412 10.9413 51.6229 9.15219 49.4237 9.15219H49.2733V7.55885C49.2733 6.83624 48.6875 6.25025 47.9647 6.25025C47.242 6.25025 46.6562 6.83624 46.6562 7.55885V9.15494C44.3643 9.21291 42.5173 11.094 42.5173 13.3996V14.7955C42.5173 17.1375 44.4228 19.0429 46.7648 19.0429H47.6708H48.2587H49.1647C50.0636 19.0429 50.795 19.7742 50.795 20.6731V22.0691C50.795 22.9681 50.0636 23.6992 49.1647 23.6992H46.5057C45.7496 23.6992 45.1345 23.0841 45.1345 22.328C45.1345 21.6054 44.5487 21.0194 43.8259 21.0194C43.1032 21.0194 42.5173 21.6054 42.5173 22.328C42.5173 24.5273 44.3064 26.3164 46.5057 26.3164H46.6562V27.91C46.6562 28.6326 47.242 29.2186 47.9647 29.2186C48.6875 29.2186 49.2733 28.6326 49.2733 27.91V26.3136C51.5652 26.2556 53.412 24.3745 53.412 22.0691V20.6731C53.412 18.3312 51.5066 16.4257 49.1646 16.4257Z" fill="#141414"/>
<path d="M47.9648 0C38.165 0 30.1924 7.97274 30.1924 17.7724C30.1924 27.5721 38.1651 35.5449 47.9648 35.5449C57.7646 35.5449 65.7372 27.5722 65.7372 17.7725C65.7372 7.97287 57.7646 0 47.9648 0ZM47.9648 32.9276C39.6081 32.9276 32.8096 26.129 32.8096 17.7724C32.8096 9.41586 39.6081 2.61719 47.9648 2.61719C56.3213 2.61719 63.12 9.41586 63.12 17.7724C63.12 26.129 56.3213 32.9276 47.9648 32.9276Z" fill="#141414"/>
</g>
<defs>
<clipPath id="clip0">
<rect width="67" height="67" fill="white"/>
</clipPath>
</defs>
</svg>

<svg width="67" height="67" fill="none" xmlns="http://www.w3.org/2000/svg"><g clip-path="url(#clip0)" fill="#141414"><path d="M10.911 54.227a1.309 1.309 0 100-2.617 1.309 1.309 0 000 2.617z"/><path d="M66.159 43.86a5.086 5.086 0 00-6.699-2.594l-.02.008L51 45.167a1.309 1.309 0 001.095 2.377l8.43-3.888a2.465 2.465 0 013.24 1.262c.265.602.28 1.271.043 1.884a2.446 2.446 0 01-1.301 1.363l-17.275 7.627a9.997 9.997 0 01-8.51-.192l-6.324-3.142a12.609 12.609 0 00-10.731-.243l-.11.048-4.712-10.673 6.546-2.89a13.037 13.037 0 019.808-.314l12.716 4.67a2.288 2.288 0 011.369 2.873 2.28 2.28 0 01-2.882 1.418l-9.834-3.326a1.309 1.309 0 10-.838 2.48l9.833 3.326a4.863 4.863 0 001.561.257 4.905 4.905 0 004.636-3.308c.854-2.496-.466-5.267-2.942-6.176L32.1 35.93a15.642 15.642 0 00-11.767.375l-6.59 2.91a3.263 3.263 0 00-1.556-1.258 3.267 3.267 0 00-2.518.059l-8.418 3.716a1.309 1.309 0 00-.78 1.194L.408 65.688a1.308 1.308 0 001.9 1.171l16.467-8.318a3.267 3.267 0 001.704-1.806 3.264 3.264 0 00.104-2.064l.14-.062a9.997 9.997 0 018.51.193l6.324 3.142a12.609 12.609 0 0010.732.243l17.275-7.627a5.086 5.086 0 002.595-6.7zm-48.12 11.93a.668.668 0 01-.357.372l-14.65 7.4.015-5.627 3.791-1.861a1.308 1.308 0 10-1.154-2.35l-2.628 1.291.031-11.232 7.64-3.373a.67.67 0 01.888.343l6.411 14.522a.669.669 0 01.012.515zm31.126-39.364h-2.4c-.9 0-1.63-.732-1.63-1.63V13.4c0-.9.73-1.63 1.63-1.63h2.659c.756 0 1.37.614 1.37 1.37a1.309 1.309 0 002.618 0 3.993 3.993 0 00-3.988-3.988h-.15V7.56a1.309 1.309 0 00-2.618 0v1.596a4.252 4.252 0 00-4.139 4.245v1.396a4.252 4.252 0 004.248 4.247h2.4c.899 0 1.63.731 1.63 1.63v1.396c0 .9-.731 1.63-1.63 1.63h-2.66a1.373 1.373 0 01-1.37-1.371 1.309 1.309 0 00-2.618 0c0 2.2 1.79 3.988 3.989 3.988h.15v1.594a1.309 1.309 0 002.617 0v-1.596a4.251 4.251 0 004.139-4.245v-1.396a4.252 4.252 0 00-4.247-4.247z"/><path d="M47.965 0c-9.8 0-17.773 7.973-17.773 17.772 0 9.8 7.973 17.773 17.773 17.773s17.772-7.973 17.772-17.773S57.765 0 47.965 0zm0 32.928c-8.357 0-15.155-6.799-15.155-15.156 0-8.356 6.798-15.155 15.155-15.155 8.356 0 15.155 6.799 15.155 15.155 0 8.357-6.799 15.156-15.155 15.156z"/></g><defs><clipPath id="clip0"><path fill="#fff" d="M0 0h67v67H0z"/></clipPath></defs></svg>
